brandFactory_export/1.Light/Desconexion_1Light.svg

<?xml version="1.0" encoding="UTF-8"?>
<svg width="24px" height="24px" viewBox="0 0 24 24" version="1.1" xmlns="http://www.w3.org/2000/svg" xmlns:xlink="http://www.w3.org/1999/xlink">
    <title>1.Light/Desconexion_1Light</title>
    <g id="Symbols" stroke="none" stroke-width="1" fill="none" fill-rule="evenodd">
        <g id="1.Light/Desconexion_1Light" fill="#5CB615" fill-rule="nonzero">
            <path d="M6.45378151,18.9915966 C7.08235294,18.9915966 7.45882353,19.3680672 7.45882353,19.9966387 C7.45882353,20.302521 7.37142857,20.5512605 7.2,20.7294118 C7.02184874,20.9109244 6.76638655,21.005042 6.45714286,21.005042 C6.14789916,21.005042 5.89243697,20.9109244 5.71428571,20.7294118 C5.5394958,20.5512605 5.45210084,20.3058824 5.45210084,19.9966387 C5.45210084,19.3647059 5.82521008,18.9915966 6.45378151,18.9915966 L6.45378151,18.9915966 Z M14.8201681,16.5478992 C19.9865546,16.5478992 22.5983193,13.9428571 22.5983193,8.78319328 C22.5983193,3.63361345 19.9865546,1.02184874 14.8201681,1.02184874 C11.2268908,1.02184874 8.87394958,2.31932773 7.77815126,4.8302521 L9.41848739,4.8302521 C10.5647059,4.8302521 11.4151261,5.12605042 12.0168067,5.73109244 C12.6218487,6.33277311 12.907563,7.1697479 12.907563,8.31260504 L12.907563,16.4 C13.502521,16.4941176 14.1445378,16.5478992 14.8201681,16.5478992 Z M11.8823529,20.1411765 L11.8823529,8.31260504 C11.8823529,7.45546218 11.687395,6.84369748 11.287395,6.44369748 C10.887395,6.04705882 10.2722689,5.85210084 9.41512605,5.85210084 L3.48907563,5.85210084 C2.63865546,5.85210084 2.03361345,6.05714286 1.62352941,6.46386555 C1.22689076,6.87394958 1.02184874,7.47563025 1.02184874,8.31260504 L1.02184874,20.1411765 C1.02184874,20.9983193 1.21680672,21.610084 1.62352941,22.010084 C2.02352941,22.4067227 2.62857143,22.6016807 3.48907563,22.6016807 L9.41512605,22.6016807 C10.2756303,22.6016807 10.8907563,22.4067227 11.2907563,22.010084 C11.687395,21.610084 11.8823529,20.9983193 11.8823529,20.1411765 L11.8823529,20.1411765 Z M14.8201681,0 C20.5848739,0 23.6235294,3.04201681 23.6235294,8.78319328 C23.6235294,14.5344538 20.5848739,17.5663866 14.8201681,17.5663866 C14.1445378,17.5663866 13.512605,17.512605 12.907563,17.4218487 L12.907563,20.1378151 C12.907563,21.2907563 12.6117647,22.1378151 12.0067227,22.7327731 C11.4117647,23.3344538 10.5613445,23.6201681 9.41848739,23.6201681 L3.48907563,23.6201681 C2.35294118,23.6201681 1.50252101,23.3310924 0.897478992,22.7327731 C0.295798319,22.1411765 0,21.2840336 0,20.1411765 L0,8.31260504 C0,7.18991597 0.295798319,6.35294118 0.900840336,5.7512605 C1.50588235,5.12605042 2.35630252,4.8302521 3.49243697,4.8302521 L6.66554622,4.8302521 C7.83865546,1.67394958 10.6453782,0 14.8201681,0 Z M17.0151261,11.9226891 L14.4605042,9.37478992 C14.3630252,9.27731092 14.3092437,9.14957983 14.3092437,9.01176471 L14.3092437,5.56638655 C14.3092437,5.28403361 14.5378151,5.05546218 14.8201681,5.05546218 C15.102521,5.05546218 15.3310924,5.28403361 15.3310924,5.56638655 L15.3310924,8.80336134 L17.7344538,11.2033613 C17.9327731,11.4016807 17.9327731,11.7277311 17.7344538,11.9260504 C17.5361345,12.1210084 17.2134454,12.1210084 17.0151261,11.9226891 L17.0151261,11.9226891 Z" id="Desconexion_1Light"></path>
        </g>
    </g>
</svg>

<svg width="24" height="24" viewBox="0 0 24 24" xmlns="http://www.w3.org/2000/svg"><path d="M6.454 18.992c.628 0 1.005.376 1.005 1.005 0 .306-.088.554-.259.732-.178.182-.434.276-.743.276-.31 0-.565-.094-.743-.276-.175-.178-.262-.423-.262-.732 0-.632.373-1.005 1.002-1.005zm8.366-2.444c5.167 0 7.778-2.605 7.778-7.765 0-5.15-2.611-7.761-7.778-7.761-3.593 0-5.946 1.297-7.042 3.808h1.64c1.147 0 1.997.296 2.599.901.605.602.89 1.439.89 2.582V16.4c.596.094 1.238.148 1.913.148zm-2.938 3.593V8.313c0-.858-.195-1.47-.595-1.87-.4-.396-1.015-.59-1.872-.59H3.49c-.85 0-1.455.204-1.865.61-.397.41-.602 1.013-.602 1.85V20.14c0 .857.195 1.47.602 1.87.4.396 1.005.59 1.865.59h5.926c.86 0 1.476-.194 1.876-.59.396-.4.591-1.013.591-1.87zM14.82 0c5.765 0 8.804 3.042 8.804 8.783 0 5.751-3.04 8.783-8.804 8.783-.675 0-1.307-.053-1.912-.144v2.716c0 1.153-.296 2-.901 2.595-.595.601-1.446.887-2.589.887H3.49c-1.136 0-1.986-.289-2.592-.887C.296 22.14 0 21.284 0 20.14V8.313C0 7.19.296 6.353.9 5.75c.606-.625 1.456-.92 2.592-.92h3.174C7.839 1.673 10.646 0 14.82 0zm2.195 11.923l-2.554-2.548a.508.508 0 01-.152-.363V5.566a.51.51 0 111.022 0v3.237l2.403 2.4a.513.513 0 010 .723.512.512 0 01-.719-.003z" fill="#5CB615" fill-rule="nonzero"/></svg>
